svg/u1f310.svg

<svg viewBox="0 0 128 128" xmlns="http://www.w3.org/2000/svg">
  <radialGradient id="SVGID_1_" cx="65.0251" cy="5.0371" gradientUnits="userSpaceOnUse" r="105.9248">
    <stop offset="0.2102" stop-color="#01B3F7"/>
    <stop offset="0.4574" stop-color="#01B3F7"/>
  </radialGradient>
  <path d="M113.28,28.59C98.3,7.63,73.88,5.55,64.05,5.4c-9.5-0.14-29.7,3.02-44.46,18.19 C8.64,34.84,3.32,48.85,3.52,65.04c0.18,14.67,5.21,26.76,14.4,37.78c13.57,16.27,32.85,20.49,46.33,20.49c0.38,0,0.76,0,1.14-0.01 c13.14-0.35,35.87-4.12,49.44-26.33c6-9.82,9.39-21.26,9.53-32.21C124.59,47.1,117.52,34.51,113.28,28.59z M117.18,59.86l-11.5-0.03 c-0.36-8.24-1.77-15.29-3.78-21.3l8.77,0.03C113.53,43.7,116.47,50.89,117.18,59.86z M10.82,67.6l11.99,0.03 c0.48,6.73,1.58,14.21,3.95,21.55h-9.75C13.35,82.67,11.29,75.5,10.82,67.6z M67.86,11.74c3.54,1.33,13.82,6.04,21.36,18.76 l-21.41-0.06L67.86,11.74z M60.81,12.03v18.39l-22.01-0.06C47.04,17.38,58.73,12.76,60.81,12.03z M60.81,38.42v21.31l-30.23-0.07 c0.2-8.44,1.78-15.47,4.13-21.31L60.81,38.42z M22.52,59.63L10.91,59.6c0.69-7.72,3.13-14.89,6.99-21.31l8.13,0.02 C23.94,44.32,22.58,51.38,22.52,59.63z M30.75,67.65l30.06,0.07v21.46H35C32.84,83.31,31.29,76.21,30.75,67.65z M60.81,97.18v19.18 c-4.06-1.3-14.65-5.84-22.15-19.18H60.81z M67.67,116.5l0.14-19.32h22.19C83.15,110.46,72.9,115.25,67.67,116.5z M67.81,89.18V67.74 l29.63,0.07c-0.35,8.5-1.78,15.54-3.84,21.37H67.81z M67.81,59.74V38.44l25.36,0.07c2.28,5.83,3.88,12.85,4.26,21.3L67.81,59.74z M105.29,30.55l-6.69-0.02c-2.43-4.89-5.22-8.85-7.98-12.03C95.8,21.25,100.91,25.12,105.29,30.55z M37.5,18.97 c-2.75,3.02-5.55,6.77-7.99,11.35l-5.78-0.02c0.69-0.79,1.4-1.57,2.13-2.33C29.56,24.19,33.52,21.24,37.5,18.97z M23.43,98.15 c-0.28-0.32-0.55-0.65-0.83-0.97h7.33c2.14,4.47,4.88,8.74,8.38,12.6C32.94,106.9,27.76,103.05,23.43,98.15z M90.49,110.33 c3-3.65,6.72-8.09,8.78-13.15h6.52C101.75,102.27,95.46,107.52,90.49,110.33z M110.96,89.18h-8.67c2.24-7.35,3.16-14.78,3.41-21.35 l11.51,0.03C116.53,76.99,113.58,84.25,110.96,89.18z" fill="url(#SVGID_1_)"/>
  <polygon points="93.65,39.75 67.8,39.67 67.81,37.17 92.74,37.29 " fill="#188AFF"/>
  <polygon points="60.81,39.65 34.23,39.59 35.18,37.12 60.81,37.15 " fill="#188AFF"/>
  <polygon points="60.81,68.96 30.83,68.91 30.64,66.4 60.81,66.46 " fill="#188AFF"/>
  <polygon points="97.39,69.03 67.81,68.97 67.81,66.47 97.51,66.58 " fill="#188AFF"/>
  <polygon points="117.09,69.08 105.63,69.09 105.74,66.57 117.32,66.6 " fill="#188AFF"/>
  <polygon points="111.3,39.72 102.31,39.77 101.51,37.35 110.07,37.41 " fill="#188AFF"/>
  <polygon points="60.81,98.41 39.37,98.4 37.97,96.06 60.85,95.92 " fill="#188AFF"/>
  <polygon points="89.37,98.34 67.79,98.41 67.81,95.91 90.66,95.98 " fill="#188AFF"/>
  <polygon points="30.52,98.36 23.73,98.48 21.72,96.2 29.53,96.19 " fill="#188AFF"/>
  <polygon points="22.89,68.86 10.89,68.85 10.71,66.34 22.75,66.4 " fill="#188AFF"/>
  <polygon points="25.62,39.55 17.18,39.51 18.56,37.08 26.45,37.06 " fill="#188AFF"/>
  <polygon points="104.73,98.46 98.71,98.41 99.77,96.05 106.67,96.09 " fill="#188AFF"/>
  <path d="M38.84,30.31l0.01-0.09c0.2-0.29,3.45-7.47,9.64-12.71c6.29-5.33,12.12-6.93,12.37-7l-0.05,2.65 c-0.06,0.02-5.2,1.31-11.16,6.11C42.63,24.92,38.89,30.25,38.84,30.31z" fill="#188AFF"/>
  <path d="M89.23,30.51c-0.03-0.05-2.51-4.47-9.45-10.16c-5.51-4.51-11.86-7.34-11.93-7.37l0.03-2.6 c0.3,0.12,6.88,2.97,12.52,8.03c6.36,5.7,8.66,11.69,8.78,11.91L89.23,30.51z" fill="#188AFF"/>
  <path d="M105.27,30.52c-0.03-0.04-3.38-3.13-7.04-6.05c-3.46-2.77-5.91-3.93-5.95-3.96l-2.54-3.11 c0.2,0.1,5.83,2.92,9.4,6.02c3.53,3.07,5.94,6.8,6.06,6.95L105.27,30.52z" fill="#188AFF"/>
  <path d="M23.74,30.3l0.03-0.1c0.11-0.13,2.1-3.23,5.56-6.46c4.21-3.92,8.89-5.73,9.05-5.82l-2.24,2.6 c-0.04,0.02-1.8,0.64-6.19,4.17C26.45,27.51,23.77,30.27,23.74,30.3z" fill="#188AFF"/>
  <path d="M64.11,124.55c-41.05,0-54.65-34.41-54.79-34.75l0.12,0.24c0.14,0.33,15.32,32.01,54.67,32.01 c0.05,0,0.09,0,0.13,0c21.16-0.04,34.42-8.85,41.83-16.24c8.05-8.03,12.3-15.49,12.33-15.57l0.05-0.1 c-0.13,0.34-11.93,34.33-54.2,34.41C64.2,124.55,64.15,124.55,64.11,124.55z" fill="#188AFF"/>
</svg>

<svg viewBox="0 0 128 128" xmlns="http://www.w3.org/2000/svg">
  <defs>
    <radialGradient id="SVGID_1_" cx="65.0251" cy="5.0371" gradientUnits="userSpaceOnUse" r="105.9248">
      <stop offset="0.2102" stop-color="#01B3F7"/>
      <stop offset="0.4574" stop-color="#01B3F7"/>
    </radialGradient>
  </defs>
  <path d="M113.28,28.59 C98.3,7.63 73.88,5.55 64.05,5.4 C54.55,5.26 34.35,8.42 19.59,23.59 C8.64,34.84 3.32,48.85 3.52,65.04 C3.7,79.71 8.73,91.8 17.92,102.82 C31.49,119.09 50.77,123.31 64.25,123.31 C64.63,123.31 65.01,123.31 65.39,123.3 C78.53,122.95 101.26,119.18 114.83,96.97 C120.83,87.15 124.22,75.71 124.36,64.76 C124.59,47.1 117.52,34.51 113.28,28.59 Z M117.18,59.86 L105.68,59.83 C105.32,51.59 103.91,44.54 101.9,38.53 L110.67,38.56 C113.53,43.7 116.47,50.89 117.18,59.86 Z M10.82,67.6 L22.81,67.63 C23.29,74.36 24.39,81.84 26.76,89.18 L17.01,89.18 C13.35,82.67 11.29,75.5 10.82,67.6 Z M67.86,11.74 C71.4,13.07 81.68,17.78 89.22,30.5 L67.81,30.44 L67.86,11.74 Z M60.81,12.03 L60.81,30.42 L38.8,30.36 C47.04,17.38 58.73,12.76 60.81,12.03 Z M60.81,38.42 L60.81,59.73 L30.58,59.66 C30.78,51.22 32.36,44.19 34.71,38.35 L60.81,38.42 Z M22.52,59.63 L10.91,59.6 C11.6,51.88 14.04,44.71 17.9,38.29 L26.03,38.31 C23.94,44.32 22.58,51.38 22.52,59.63 Z M30.75,67.65 L60.81,67.72 L60.81,89.18 L35,89.18 C32.84,83.31 31.29,76.21 30.75,67.65 Z M60.81,97.18 L60.81,116.36 C56.75,115.06 46.16,110.52 38.66,97.18 L60.81,97.18 Z M67.67,116.5 L67.81,97.18 L90,97.18 C83.15,110.46 72.9,115.25 67.67,116.5 Z M67.81,89.18 L67.81,67.74 L97.44,67.81 C97.09,76.31 95.66,83.35 93.6,89.18 L67.81,89.18 Z M67.81,59.74 L67.81,38.44 L93.17,38.51 C95.45,44.34 97.05,51.36 97.43,59.81 L67.81,59.74 Z M105.29,30.55 L98.6,30.53 C96.17,25.64 93.38,21.68 90.62,18.5 C95.8,21.25 100.91,25.12 105.29,30.55 Z M37.5,18.97 C34.75,21.99 31.95,25.74 29.51,30.32 L23.73,30.3 C24.42,29.51 25.13,28.73 25.86,27.97 C29.56,24.19 33.52,21.24 37.5,18.97 Z M23.43,98.15 C23.15,97.83 22.88,97.5 22.6,97.18 L29.93,97.18 C32.07,101.65 34.81,105.92 38.31,109.78 C32.94,106.9 27.76,103.05 23.43,98.15 Z M90.49,110.33 C93.49,106.68 97.21,102.24 99.27,97.18 L105.79,97.18 C101.75,102.27 95.46,107.52 90.49,110.33 Z M110.96,89.18 L102.29,89.18 C104.53,81.83 105.45,74.4 105.7,67.83 L117.21,67.86 C116.53,76.99 113.58,84.25 110.96,89.18 Z" fill="url(#SVGID_1_)"/>
  <path d="M93.65,39.75 L67.8,39.67 L67.81,37.17 L92.74,37.29 Z" fill="#188AFF"/>
  <path d="M60.81,39.65 L34.23,39.59 L35.18,37.12 L60.81,37.15 Z" fill="#188AFF"/>
  <path d="M60.81,68.96 L30.83,68.91 L30.64,66.4 L60.81,66.46 Z" fill="#188AFF"/>
  <path d="M97.39,69.03 L67.81,68.97 L67.81,66.47 L97.51,66.58 Z" fill="#188AFF"/>
  <path d="M117.09,69.08 L105.63,69.09 L105.74,66.57 L117.32,66.6 Z" fill="#188AFF"/>
  <path d="M111.3,39.72 L102.31,39.77 L101.51,37.35 L110.07,37.41 Z" fill="#188AFF"/>
  <path d="M60.81,98.41 L39.37,98.4 L37.97,96.06 L60.85,95.92 Z" fill="#188AFF"/>
  <path d="M89.37,98.34 L67.79,98.41 L67.81,95.91 L90.66,95.98 Z" fill="#188AFF"/>
  <path d="M30.52,98.36 L23.73,98.48 L21.72,96.2 L29.53,96.19 Z" fill="#188AFF"/>
  <path d="M22.89,68.86 L10.89,68.85 L10.71,66.34 L22.75,66.4 Z" fill="#188AFF"/>
  <path d="M25.62,39.55 L17.18,39.51 L18.56,37.08 L26.45,37.06 Z" fill="#188AFF"/>
  <path d="M104.73,98.46 L98.71,98.41 L99.77,96.05 L106.67,96.09 Z" fill="#188AFF"/>
  <path d="M38.84,30.31 L38.85,30.22 C39.05,29.93 42.3,22.75 48.49,17.51 C54.78,12.18 60.61,10.58 60.86,10.51 L60.81,13.16 C60.75,13.18 55.61,14.47 49.65,19.27 C42.63,24.92 38.89,30.25 38.84,30.31 Z" fill="#188AFF"/>
  <path d="M89.23,30.51 C89.2,30.46 86.72,26.04 79.78,20.35 C74.27,15.84 67.92,13.01 67.85,12.98 L67.88,10.38 C68.18,10.5 74.76,13.35 80.4,18.41 C86.76,24.11 89.06,30.1 89.18,30.32 L89.23,30.51 Z" fill="#188AFF"/>
  <path d="M105.27,30.52 C105.24,30.48 101.89,27.39 98.23,24.47 C94.77,21.7 92.32,20.54 92.28,20.51 L89.74,17.4 C89.94,17.5 95.57,20.32 99.14,23.42 C102.67,26.49 105.08,30.22 105.2,30.37 L105.27,30.52 Z" fill="#188AFF"/>
  <path d="M23.74,30.3 L23.77,30.2 C23.88,30.07 25.87,26.97 29.33,23.74 C33.54,19.82 38.22,18.01 38.38,17.92 L36.14,20.52 C36.1,20.54 34.34,21.16 29.95,24.69 C26.45,27.51 23.77,30.27 23.74,30.3 Z" fill="#188AFF"/>
  <path d="M64.11,124.55 C23.06,124.55 9.46,90.14 9.32,89.8 L9.44,90.04 C9.58,90.37 24.76,122.05 64.11,122.05 C64.16,122.05 64.2,122.05 64.24,122.05 C85.4,122.01 98.66,113.2 106.07,105.81 C114.12,97.78 118.37,90.32 118.4,90.24 L118.45,90.14 C118.32,90.48 106.52,124.47 64.25,124.55 C64.2,124.55 64.15,124.55 64.11,124.55 Z" fill="#188AFF"/>
</svg>
